packages/fxa-payments-server/src/components/NewUserEmailForm/images/shield.svg

<svg width="32" height="32"  xmlns="http://www.w3.org/2000/svg">
<path fill-rule="evenodd" clip-rule="evenodd" d="M10.3508 18.5923C9.43574 16.2788 9.23239 13.3484 9.37494 9.71623L16 8.0413L22.6251 9.71623C22.7676 13.3484 22.5643 16.2788 21.6492 18.5923C20.7382 20.8955 19.0785 22.6903 16 23.9075C12.9216 22.6903 11.2618 20.8955 10.3508 18.5923ZM8.08913 8.66602L16 6.66602L23.9109 8.66602C24.3504 16.8882 23.3835 22.666 16 25.3327C8.61653 22.666 7.64964 16.8882 8.08913 8.66602ZM12.0446 11.7374L16 10.666V20.666C12.3083 19.2374 11.8248 16.1422 12.0446 11.7374Z" fill="#3FE1B0"/>
</svg>

<svg width="32" height="32" xmlns="http://www.w3.org/2000/svg"><path fill-rule="evenodd" clip-rule="evenodd" d="M10.35 18.592c-.914-2.313-1.118-5.244-.975-8.876L16 8.041l6.625 1.675c.143 3.632-.06 6.563-.976 8.876-.91 2.303-2.57 4.098-5.649 5.316-3.078-1.218-4.738-3.013-5.65-5.316zM8.09 8.666l7.91-2 7.91 2c.44 8.222-.526 14-7.91 16.667-7.383-2.667-8.35-8.445-7.91-16.667zm3.955 3.071L16 10.666v10c-3.692-1.429-4.175-4.524-3.955-8.929z" fill="#3FE1B0"/></svg>
